themes/terra/assets/images/icons/world.svg

<svg height="284" viewBox="0 0 284 284" width="284" xmlns="http://www.w3.org/2000/svg" xmlns:xlink="http://www.w3.org/1999/xlink"><linearGradient id="a" x1="50%" x2="50%" y1="0%" y2="100%"><stop offset="0" stop-color="#002d6e"/><stop offset=".55534734" stop-color="#00d4e8"/><stop offset="1" stop-color="#158130"/></linearGradient><path d="m813.001984 598.591592c-11.066613 11.057672-23.809512 19.931217-37.671139 26.408408-6.594109-3.093674-25.68613-14.430274-17.19006-38.978355 5.45607-11.394811 13.390965-14.629161 21.065185-17.756792 8.333148-3.396857 18.699802-7.622008 16.805081-23.956268-.739785-10.990972 6.205511-17.150428 20.650036-18.308585 12.427916.01334 23.951918 4.740562 31.338913 9.597545-5.439174 23.68583-17.402462 45.4131-34.998016 62.994047m-93.110688 38.392712c-.687217.010867-1.368396.015696-2.051989.015696-8.055779 0-15.978704-.714765-23.70114-2.097207 17.81088-10.995549 29.114333-27.100701 30.985158-44.891346 2.198128-20.924986-8.803384-40.929954-30.988781-56.366221-7.427742-6.878406-5.230822-12.90682.379237-25.72188 3.20178-7.309438 6.828692-15.595641 7.856498-25.305337l.051934-.487779-.036233-.488986c-1.211386-16.140166-10.734597-35.379659-49.227209-35.379659l-.283824.007244c-9.274412.484157-12.572812-3.683695-14.417066-7.372221-2.719882-5.440424-3.344296-13.178479-3.847933-19.395244-.353875-4.376728-.671516-8.096645-1.609948-11.051088 15.622413-13.457382 45.386523-33.450276 84.414174-33.450276.806786 0 1.626857.008452 2.442097.026562 3.265791.06882 6.482063.263208 9.656064.555392.042272.433447.085751.869309.130439 1.313622.800746 7.872074 1.89498 18.646673-6.204278 33.981521-17.687689 30.616571-.682387 41.603668 10.572756 48.878092 6.368534 4.114728 10.323958 6.930323 10.944748 10.849456-.016909 6.199862-.44808 12.852489-.864758 19.288996-1.190855 18.365354-2.218661 34.22541 5.2743 42.217013 2.869645 3.059484 6.805744 4.677364 11.384374 4.677364 12.60059 0 17.800009-15.723622 22.829134-30.930488 2.114793-6.393042 4.300844-13.002203 6.785212-17.540719 2.010926-3.674037 14.869978-6.316977 24.257919-8.245152 11.147652-2.291594 23.228904-4.779991 30.603504-10.230074 3.777883 11.91436 5.774315 24.142636 5.774315 36.164452 0 6.098442-.427548 12.130479-1.248827 18.067134-8.722464-4.846397-20.717965-9.017871-33.516629-9.017871h-.17271l-.397354.015695c-20.576657 1.569586-32.118039 12.777632-30.871628 29.981493l.025363.257171c.978288 8.131659-1.811644 9.262968-10.09569 12.620673-8.298539 3.364949-19.663588 7.972286-26.939152 23.348184l-.210151.508304c-5.793639 16.34059-1.675167 28.339466 2.800802 35.526959 2.914332 4.679779 6.992948 8.899548 11.785351 12.321244-13.414623 4.618203-27.648109 7.134369-42.268079 7.349281m-130.864784-131.102438c.966794-49.016286 29.106803-82.624931 32.3137-86.296586.427667-.491167 1.239387-1.394865 2.375794-2.58528.094498 1.021047.176882 2.045723.253208 2.976036 1.078254 13.329256 3.088168 38.12472 29.610796 36.823006 35.543616.045972 37.804316 18.150193 38.332539 24.87289-.923179 7.858671-3.998021 14.871713-6.972306 21.657318-5.323425 12.14247-11.355591 25.903614 2.545406 38.442889l.556089.439147c19.028156 13.128433 28.526484 29.676889 26.746759 46.596745-1.840301 17.484818-15.379053 33.197323-36.277799 42.191969-19.649666-6.157734-37.535357-16.916226-52.338938-31.771003-24.65325-24.738605-37.845508-57.891166-37.145248-93.347131m251.973488-47.465433c-2.329094 5.629345-16.848608 8.605961-28.714969 11.035112-14.655449 2.999578-27.313144 5.590673-31.760148 13.686633-2.973569 5.409393-5.329364 12.50348-7.607482 19.36432-3.105863 9.356461-7.801675 23.497502-12.570309 23.497502-2.039019 0-2.925021-.664693-3.469973-1.24358-4.294077-4.561003-3.27214-20.26226-2.371574-34.115671.43936-6.741195.893285-13.712012.893285-20.372236l-.036411-.633271c-1.114178-9.4471-8.999599-14.521729-15.955323-19.000551-11.435498-7.361173-19.697166-12.678717-7.047966-34.431098l.099523-.178863c9.283605-17.451212 8.491058-30.279787 7.623261-39.02473 48.196096 8.506862 84.334065 42.234593 100.918086 81.416433m-120.870251-94.387429c-.891878-.019336-1.78013-.029004-2.664757-.029004-60.258571 0-100.124797 43.706996-104.527388 48.75857-3.46358 3.972375-33.869614 40.332834-34.90893 93.139915-.757734 38.3968 13.524401 74.313736 40.217901 101.137838 26.3382 26.467592 61.641103 40.963677 99.628101 40.963677.737189 0 1.480421-.004834 2.220027-.016919 38.013584-.560749 73.635534-15.47377 100.304864-41.990911 26.826436-26.67183 41.600433-62.181498 41.600433-99.986127 0-83.116528-73.357577-140.515949-141.870251-141.977039" fill="url(#a)" fill-rule="evenodd" transform="translate(-578 -364)"/></svg>

<?xml version="1.0" encoding="UTF-8"?>
<svg width="284px" height="284px" viewBox="0 0 284 284" version="1.1" xmlns="http://www.w3.org/2000/svg" xmlns:xlink="http://www.w3.org/1999/xlink">
    <!-- Generator: Sketch 55.1 (78136) - https://sketchapp.com -->
    <title>World</title>
    <desc>Created with Sketch.</desc>
    <defs>
        <linearGradient x1="50%" y1="0%" x2="50%" y2="100%" id="linearGradient-1">
            <stop stop-color="#002D6E" offset="0%"></stop>
            <stop stop-color="#00D4E8" offset="55.534734%"></stop>
            <stop stop-color="#158130" offset="100%"></stop>
        </linearGradient>
    </defs>
    <g id="High-fi" stroke="none" stroke-width="1" fill="none" fill-rule="evenodd">
        <g id="Contact-Us-Confirmation-with-subscription" transform="translate(-578.000000, -364.000000)" fill="url(#linearGradient-1)">
            <path d="M813.001984,598.591592 C801.935371,609.649264 789.192472,618.522809 775.330845,625 C768.736736,621.906326 749.644715,610.569726 758.140785,586.021645 C763.596855,574.626834 771.53175,571.392484 779.20597,568.264853 C787.539118,564.867996 797.905772,560.642845 796.011051,544.308585 C795.271266,533.317613 802.216562,527.158157 816.661087,526 C829.089003,526.01334 840.613005,530.740562 848,535.597545 C842.560826,559.283375 830.597538,581.010645 813.001984,598.591592 M719.891296,636.984304 C719.204079,636.995171 718.5229,637 717.839307,637 C709.783528,637 701.860603,636.285235 694.138167,634.902793 C711.949047,623.907244 723.2525,607.802092 725.123325,590.011447 C727.321453,569.086461 716.319941,549.081493 694.134544,533.645226 C686.706802,526.76682 688.903722,520.738406 694.513781,507.923346 C697.715561,500.613908 701.342473,492.327705 702.370279,482.618009 L702.422213,482.13023 L702.38598,481.641244 C701.174594,465.501078 691.651383,446.261585 653.158771,446.261585 L652.874947,446.268829 C643.600535,446.752986 640.302135,442.585134 638.457881,438.896608 C635.737999,433.456184 635.113585,425.718129 634.609948,419.501364 C634.256073,415.124636 633.938432,411.404719 633,408.450276 C648.622413,394.992894 678.386523,375 717.414174,375 C718.22096,375 719.041031,375.008452 719.856271,375.026562 C723.122062,375.095382 726.338334,375.28977 729.512335,375.581954 C729.554607,376.015401 729.598086,376.451263 729.642774,376.895576 C730.44352,384.76765 731.537754,395.542249 723.438496,410.877097 C705.750807,441.493668 722.756109,452.480765 734.011252,459.755189 C740.379786,463.869917 744.33521,466.685512 744.956,470.604645 C744.939091,476.804507 744.50792,483.457134 744.091242,489.893641 C742.900387,508.258995 741.872581,524.119051 749.365542,532.110654 C752.235187,535.170138 756.171286,536.788018 760.749916,536.788018 C773.350506,536.788018 778.549925,521.064396 783.57905,505.85753 C785.693843,499.464488 787.879894,492.855327 790.364262,488.316811 C792.375188,484.642774 805.23424,481.999834 814.622181,480.071659 C825.769833,477.780065 837.851085,475.291668 845.225685,469.841585 C849.003568,481.755945 851,493.984221 851,506.006037 C851,512.104479 850.572452,518.136516 849.751173,524.073171 C841.028709,519.226774 829.033208,515.0553 816.234544,515.0553 L816.061834,515.0553 L815.66448,515.070995 C795.087823,516.640581 783.546441,527.848627 784.792852,545.052488 L784.818215,545.309659 C785.796503,553.441318 783.006571,554.572627 774.722525,557.930332 C766.423986,561.295281 755.058937,565.902618 747.783373,581.278516 L747.573222,581.78682 C741.779583,598.12741 745.898055,610.126286 750.374024,617.313779 C753.288356,621.993558 757.366972,626.213327 762.159375,629.635023 C748.744752,634.253226 734.511266,636.769392 719.891296,636.984304 M589.026512,505.881866 C589.993306,456.86558 618.133315,423.256935 621.340212,419.58528 C621.767879,419.094113 622.579599,418.190415 623.716006,417 C623.810504,418.021047 623.892888,419.045723 623.969214,419.976036 C625.047468,433.305292 627.057382,458.100756 653.58001,456.799042 C689.123626,456.845014 691.384326,474.949235 691.912549,481.671932 C690.98937,489.530603 687.914528,496.543645 684.940243,503.32925 C679.616818,515.47172 673.584652,529.232864 687.485649,541.772139 L688.041738,542.211286 C707.069894,555.339719 716.568222,571.888175 714.788497,588.808031 C712.948196,606.292849 699.409444,622.005354 678.510698,631 C658.861032,624.842266 640.975341,614.083774 626.17176,599.228997 C601.51851,574.490392 588.326252,541.337831 589.026512,505.881866 M841,458.416433 C838.670906,464.045778 824.151392,467.022394 812.285031,469.451545 C797.629582,472.451123 784.971887,475.042218 780.524883,483.138178 C777.551314,488.547571 775.195519,495.641658 772.917401,502.502498 C769.811538,511.858959 765.115726,526 760.347092,526 C758.308073,526 757.422071,525.335307 756.877119,524.75642 C752.583042,520.195417 753.604979,504.49416 754.505545,490.640749 C754.944905,483.899554 755.39883,476.928737 755.39883,470.268513 L755.362419,469.635242 C754.248241,460.188142 746.36282,455.113513 739.407096,450.634691 C727.971598,443.273518 719.70993,437.955974 732.35913,416.203593 L732.458653,416.02473 C741.742258,398.573518 740.949711,385.744943 740.081914,377 C788.27801,385.506862 824.415979,419.234593 841,458.416433 M720.129749,364.029004 C719.237871,364.009668 718.349619,364 717.464992,364 C657.206421,364 617.340195,407.706996 612.937604,412.75857 C609.474024,416.730945 579.06799,453.091404 578.028674,505.898485 C577.27094,544.295285 591.553075,580.212221 618.246575,607.036323 C644.584775,633.503915 679.887678,648 717.874676,648 C718.611865,648 719.355097,647.995166 720.094703,647.983081 C758.108287,647.422332 793.730237,632.509311 820.399567,605.99217 C847.226003,579.32034 862,543.810672 862,506.006043 C862,422.889515 788.642423,365.490094 720.129749,364.029004" id="World"></path>
        </g>
    </g>
</svg>
